src/lib/packages/icons/src/assets/filled/sort.svg

<svg width="24" height="24" viewBox="0 0 24 24" fill="none" xmlns="http://www.w3.org/2000/svg">
<path d="M6.29093 8.314L10.3058 3.55301C10.9288 2.81501 12.071 2.81501 12.693 3.55301L16.7079 8.314C17.3829 9.114 16.8099 10.333 15.7599 10.333H7.23893C6.18893 10.333 5.61693 9.114 6.29093 8.314ZM15.7609 13.667H7.23991C6.18991 13.667 5.61691 14.8861 6.29191 15.6861L10.3068 20.4471C10.9298 21.1851 12.072 21.1851 12.694 20.4471L16.7089 15.6861C17.3829 14.8851 16.8109 13.667 15.7609 13.667Z" fill="currentColor"/>
</svg>

<svg xmlns="http://www.w3.org/2000/svg" width="24" height="24" fill="none"><path fill="currentColor" d="m6.29 8.314 4.016-4.761a1.564 1.564 0 0 1 2.387 0l4.015 4.761c.675.8.102 2.019-.948 2.019H7.239c-1.05 0-1.622-1.219-.948-2.019Zm9.47 5.353H7.24c-1.05 0-1.623 1.22-.948 2.02l4.015 4.76a1.564 1.564 0 0 0 2.387 0l4.015-4.76c.674-.802.102-2.02-.948-2.02Z"/></svg>
